img/ingridients-icons/sesame.svg

<svg width="24" height="24" viewBox="0 0 24 24" fill="none" xmlns="http://www.w3.org/2000/svg">
<path d="M11.268 19.194C11.0196 19.119 10.7571 19.2597 10.6868 19.5081C10.0634 21.5986 8.09948 23.061 5.91524 23.061C3.16855 23.0563 0.937439 20.8252 0.937439 18.0832C0.937439 14.4037 2.23111 10.818 4.58408 7.98695L5.37621 7.03545C5.50746 6.87608 5.70432 6.78234 5.91056 6.78234C6.11679 6.78234 6.31365 6.87608 6.4449 7.03545L7.23703 7.98695C9.03223 10.1477 10.2228 12.7538 10.6774 15.524C10.7196 15.7771 10.9587 15.9505 11.2165 15.9083C11.4696 15.8661 11.643 15.6271 11.6008 15.3693C11.118 12.4351 9.85718 9.67434 7.95886 7.38699L7.17141 6.4308C6.86206 6.05582 6.40271 5.84021 5.91524 5.84021C5.42777 5.84021 4.96843 6.05582 4.65907 6.4308L3.86694 7.3823C1.37335 10.3821 0 14.1834 0 18.0832C0 21.3455 2.65295 23.9984 5.91524 23.9984C7.2136 23.9984 8.44633 23.5859 9.4822 22.8032C10.4806 22.0485 11.2305 20.9705 11.5868 19.7799C11.6571 19.5268 11.5164 19.2643 11.268 19.194Z" fill="black"/>
<path d="M5.69025 11.8539C5.46058 11.9758 5.37621 12.2617 5.49808 12.4867C6.27146 13.9257 6.74487 15.5474 6.87143 17.1739C6.89017 17.4176 7.09641 17.6051 7.34015 17.6051C7.35421 17.6051 7.36358 17.6051 7.37764 17.6051C7.63544 17.5864 7.82761 17.3614 7.80886 17.1036C7.67294 15.3224 7.17141 13.621 6.32771 12.0461C6.20584 11.8164 5.91992 11.732 5.69025 11.8539Z" fill="black"/>
<path d="M5.91524 20.0144C6.17304 20.0144 6.38396 19.8035 6.38396 19.5457C6.38396 19.2879 6.17304 19.077 5.91524 19.077C5.36684 19.077 4.91687 18.6317 4.91687 18.0786C4.91687 17.4927 4.95906 16.9021 5.04811 16.3256C5.08561 16.0678 4.91218 15.8287 4.65439 15.7912C4.39659 15.7537 4.15754 15.9272 4.12005 16.1849C4.0263 16.8083 3.97943 17.4458 3.97943 18.0786C3.97943 19.1473 4.84656 20.0144 5.91524 20.0144Z" fill="black"/>
<path d="M5.91525 22.0064C8.08074 22.0064 9.83844 20.244 9.83844 18.0832C9.83844 17.8254 9.62751 17.6145 9.36972 17.6145C9.11192 17.6145 8.901 17.8254 8.901 18.0832C8.901 19.7284 7.56046 21.069 5.91525 21.069C5.65746 21.069 5.44653 21.2799 5.44653 21.5377C5.44653 21.7955 5.65746 22.0064 5.91525 22.0064Z" fill="black"/>
<path d="M8.97128 15.2053C9.00878 15.2053 9.04628 15.2006 9.08377 15.1912C9.33688 15.1303 9.49156 14.8772 9.43063 14.6241C9.10721 13.2835 8.59631 11.9946 7.91666 10.7946C7.79011 10.5697 7.50419 10.49 7.2792 10.6165C7.05422 10.7431 6.97454 11.029 7.10109 11.254C7.73855 12.3789 8.21664 13.5835 8.52131 14.8397C8.56818 15.06 8.76036 15.2053 8.97128 15.2053Z" fill="black"/>
<path d="M4.11068 11.4039C3.87632 11.2914 3.59977 11.3851 3.48259 11.6195C2.50766 13.6256 1.99207 15.8567 1.99207 18.0785C1.99207 18.3363 2.20299 18.5472 2.46079 18.5472C2.71858 18.5472 2.9295 18.3363 2.9295 18.0785C2.9295 15.9973 3.41229 13.9069 4.32629 12.032C4.43878 11.7976 4.34035 11.5211 4.11068 11.4039Z" fill="black"/>
<path d="M23.9938 13.2601L23.8813 12.0273C23.525 8.14635 21.8095 4.49033 19.0534 1.72958C16.7473 -0.576525 12.9976 -0.576525 10.6915 1.72958C8.38539 4.03568 8.38539 7.78543 10.6915 10.0915C13.4476 12.8476 17.1036 14.5631 20.9893 14.924L22.222 15.0365C22.2736 15.0412 22.3251 15.0412 22.372 15.0412C22.8032 15.0412 23.2157 14.8725 23.525 14.5631C23.8625 14.221 24.0359 13.7429 23.9938 13.2601ZM22.8548 13.9022C22.7095 14.0475 22.5032 14.1225 22.297 14.1038L21.0643 13.9913C17.3989 13.6538 13.9491 12.032 11.3477 9.43064C9.4072 7.49014 9.4072 4.33097 11.3477 2.39047C12.2898 1.44834 13.5366 0.932752 14.8678 0.932752C16.1989 0.932752 17.4457 1.44834 18.3879 2.39047C20.9893 4.99187 22.611 8.44633 22.9485 12.107L23.061 13.3398C23.0751 13.5507 23.0048 13.7569 22.8548 13.9022Z" fill="black"/>
<path d="M14.8631 4.91686C15.1303 4.91686 15.3787 5.01998 15.5662 5.20746C15.9787 5.61994 16.3677 6.06991 16.7146 6.53863C16.8083 6.66518 16.9489 6.7308 17.0942 6.7308C17.1927 6.7308 17.2864 6.70268 17.3708 6.63706C17.577 6.48238 17.6239 6.19178 17.4692 5.98085C17.0942 5.46995 16.6771 4.98717 16.2318 4.54188C15.8662 4.17628 15.3834 3.97473 14.8631 3.97473C14.3475 3.97473 13.8601 4.17628 13.4945 4.54188C13.3117 4.72468 13.3117 5.01998 13.4945 5.20278C13.6773 5.38558 13.9726 5.38558 14.1554 5.20278C14.3475 5.01998 14.6006 4.91686 14.8631 4.91686Z" fill="black"/>
<path d="M19.1144 9.57599C17.5489 9.10258 16.0677 8.2917 14.8256 7.23239C14.6287 7.06365 14.3334 7.08709 14.1647 7.28395C13.996 7.48081 14.0194 7.7761 14.2163 7.94484C15.5709 9.10727 17.127 9.95565 18.8425 10.4759C18.8894 10.49 18.9316 10.4947 18.9785 10.4947C19.18 10.4947 19.3675 10.3634 19.4284 10.1619C19.4987 9.90878 19.3581 9.65098 19.1144 9.57599Z" fill="black"/>
<path d="M17.6379 3.13576C17.4551 2.95296 17.1598 2.95296 16.977 3.13576C16.7942 3.31856 16.7942 3.61385 16.977 3.79665C18.4488 5.26843 19.5831 7.08706 20.2674 9.06037C20.333 9.25255 20.5158 9.37442 20.7127 9.37442C20.7643 9.37442 20.8158 9.36504 20.8674 9.34629C21.1111 9.26192 21.2424 8.99475 21.158 8.75102C20.4268 6.65116 19.2128 4.70597 17.6379 3.13576Z" fill="black"/>
<path d="M18.8566 11.5726C17.6098 11.2305 16.4193 10.7149 15.3178 10.0399C15.0975 9.90401 14.8069 9.97431 14.6756 10.1946C14.5397 10.4149 14.61 10.7055 14.8303 10.8368C16.0068 11.5586 17.2817 12.107 18.6082 12.4726C18.6504 12.482 18.6925 12.4913 18.7347 12.4913C18.941 12.4913 19.1285 12.3554 19.1847 12.1492C19.2503 11.8961 19.105 11.6383 18.8566 11.5726Z" fill="black"/>
<path d="M12.7539 3.13576C12.5711 2.95296 12.2758 2.95296 12.093 3.13576C10.565 4.66378 10.565 7.15737 12.093 8.6854C12.1867 8.77914 12.3039 8.82133 12.4258 8.82133C12.5476 8.82133 12.6648 8.77446 12.7586 8.6854C12.9414 8.5026 12.9414 8.2073 12.7586 8.0245C11.5961 6.86208 11.5961 4.96376 12.7586 3.80134C12.9367 3.61854 12.9367 3.31856 12.7539 3.13576Z" fill="black"/>
<path d="M11.3524 17.0754C11.2305 17.0754 11.1087 17.127 11.0196 17.2114C10.9305 17.3004 10.8837 17.4176 10.8837 17.5442C10.8837 17.666 10.9352 17.7879 11.0196 17.877C11.1087 17.966 11.2258 18.0129 11.3524 18.0129C11.4789 18.0129 11.5961 17.9613 11.6852 17.877C11.7742 17.7879 11.8211 17.6707 11.8211 17.5442C11.8211 17.4176 11.7695 17.3004 11.6852 17.2114C11.5961 17.1223 11.4743 17.0754 11.3524 17.0754Z" fill="black"/>
</svg>

<svg width="24" height="24" fill="none" xmlns="http://www.w3.org/2000/svg"><path d="M11.268 19.194a.463.463 0 00-.581.314 5.011 5.011 0 01-4.772 3.553 4.987 4.987 0 01-4.978-4.978c0-3.68 1.294-7.265 3.647-10.096l.792-.952a.695.695 0 01.535-.253c.206 0 .403.094.534.253l.792.952a15.814 15.814 0 013.44 7.537.468.468 0 00.924-.155 16.78 16.78 0 00-3.642-7.982l-.788-.956a1.625 1.625 0 00-1.256-.59c-.487 0-.947.215-1.256.59l-.792.951A16.775 16.775 0 000 18.083a5.921 5.921 0 005.915 5.915 5.869 5.869 0 003.567-1.195 5.974 5.974 0 002.105-3.023.473.473 0 00-.319-.586z" fill="#000"/><path d="M5.69 11.854a.467.467 0 00-.192.633 11.934 11.934 0 011.373 4.687.47.47 0 00.47.431h.037a.467.467 0 00.43-.501 12.695 12.695 0 00-1.48-5.058.47.47 0 00-.638-.192zm.225 8.16a.47.47 0 00.469-.468.47.47 0 00-.469-.469 1 1 0 01-.998-.998c0-.586.042-1.177.131-1.753a.468.468 0 00-.394-.535.468.468 0 00-.534.394c-.094.623-.14 1.26-.14 1.894 0 1.068.867 1.935 1.935 1.935zm0 1.992a3.928 3.928 0 003.923-3.923.47.47 0 00-.468-.468.47.47 0 00-.469.468 2.99 2.99 0 01-2.986 2.986.47.47 0 00-.468.469c0 .258.21.468.468.468zm3.056-6.801a.47.47 0 00.46-.581 14.831 14.831 0 00-1.514-3.83.469.469 0 00-.816.46 13.926 13.926 0 011.42 3.586.46.46 0 00.45.365zM4.11 11.404a.47.47 0 00-.627.216 14.856 14.856 0 00-1.49 6.458c0 .258.21.47.468.47a.47.47 0 00.469-.47c0-2.08.482-4.171 1.396-6.046a.474.474 0 00-.215-.628zm19.884 1.856l-.113-1.233A16.777 16.777 0 0019.053 1.73a5.918 5.918 0 00-8.362 0 5.918 5.918 0 000 8.361 16.784 16.784 0 0010.298 4.833l1.233.113c.052.004.103.004.15.004.431 0 .844-.168 1.153-.478.338-.342.51-.82.469-1.303zm-1.14.642a.703.703 0 01-.557.202l-1.233-.113a15.822 15.822 0 01-9.716-4.56 4.985 4.985 0 010-7.04 4.938 4.938 0 013.52-1.458 4.94 4.94 0 013.52 1.457 15.833 15.833 0 014.56 9.717l.113 1.233a.71.71 0 01-.206.562z" fill="#000"/><path d="M14.863 4.917c.267 0 .516.103.703.29.413.413.802.863 1.149 1.332a.468.468 0 10.754-.558 12.603 12.603 0 00-1.237-1.44 1.918 1.918 0 00-1.369-.566c-.515 0-1.003.201-1.368.567a.467.467 0 10.66.66c.193-.182.446-.285.708-.285zm4.251 4.659a12.023 12.023 0 01-4.288-2.344.468.468 0 10-.61.713 12.722 12.722 0 004.627 2.53.471.471 0 00.586-.314.476.476 0 00-.315-.585zm-1.476-6.44a.467.467 0 10-.661.66 13.933 13.933 0 013.29 5.264.469.469 0 00.6.286.47.47 0 00.291-.595 14.884 14.884 0 00-3.52-5.615zm1.219 8.437a13.716 13.716 0 01-3.54-1.533.465.465 0 00-.641.155.465.465 0 00.154.642 14.69 14.69 0 003.778 1.636.465.465 0 00.576-.323.47.47 0 00-.327-.577zm-6.103-8.437a.467.467 0 00-.661 0 3.932 3.932 0 000 5.55.46.46 0 00.333.135.467.467 0 00.333-.797 2.993 2.993 0 010-4.223.477.477 0 00-.005-.665zm-1.402 13.939a.464.464 0 00-.469.469.464.464 0 00.469.469.464.464 0 00.469-.469.484.484 0 00-.136-.333.472.472 0 00-.333-.136z" fill="#000"/></svg>
